flaticon/medical/implants-2.svg

<svg xmlns="http://www.w3.org/2000/svg" width="32" height="32" viewBox="0 0 24 24">
    <path d="M 15.03125 10.324219 C 15.25 10.253906 15.367188 10.019531 15.292969 9.800781 C 15.222656 9.585938 14.988281 9.46875 14.769531 9.539062 L 14.488281 9.632812 L 14.488281 7.277344 L 13.003906 5.792969 L 10.179688 5.792969 L 8.695312 7.277344 L 8.695312 11.433594 L 8.15625 11.605469 C 7.9375 11.675781 7.820312 11.90625 7.886719 12.125 C 7.941406 12.300781 8.105469 12.414062 8.28125 12.414062 C 8.324219 12.414062 8.367188 12.40625 8.40625 12.394531 L 8.695312 12.304688 L 8.695312 13.917969 L 8.15625 14.089844 C 7.9375 14.160156 7.820312 14.390625 7.886719 14.609375 C 7.941406 14.785156 8.105469 14.898438 8.28125 14.898438 C 8.324219 14.898438 8.367188 14.890625 8.40625 14.878906 L 8.695312 14.785156 L 8.695312 16.402344 L 8.15625 16.570312 C 7.9375 16.640625 7.820312 16.875 7.886719 17.09375 C 7.941406 17.269531 8.105469 17.378906 8.28125 17.378906 C 8.324219 17.378906 8.367188 17.375 8.40625 17.359375 L 8.695312 17.269531 L 8.695312 18.882812 L 8.15625 19.054688 C 7.9375 19.125 7.820312 19.355469 7.886719 19.574219 C 7.941406 19.75 8.105469 19.863281 8.28125 19.863281 C 8.324219 19.863281 8.367188 19.855469 8.40625 19.84375 L 8.695312 19.753906 L 8.695312 20.691406 L 9.523438 20.691406 L 9.523438 22.070312 L 10.972656 24 L 12.210938 24 L 13.660156 22.070312 L 13.660156 20.691406 L 14.488281 20.691406 L 14.488281 17.953125 L 15.03125 17.773438 C 15.25 17.699219 15.367188 17.464844 15.292969 17.25 C 15.222656 17.03125 14.988281 16.914062 14.769531 16.988281 L 14.488281 17.082031 L 14.488281 15.472656 L 15.03125 15.289062 C 15.25 15.21875 15.367188 14.984375 15.292969 14.765625 C 15.222656 14.550781 14.988281 14.433594 14.769531 14.503906 L 14.488281 14.601562 L 14.488281 12.988281 L 15.03125 12.808594 C 15.25 12.734375 15.367188 12.5 15.292969 12.285156 C 15.222656 12.066406 14.988281 11.949219 14.769531 12.023438 L 14.488281 12.117188 L 14.488281 10.507812 Z M 9.523438 7.621094 L 10.523438 6.621094 L 12.664062 6.621094 L 13.660156 7.621094 L 13.660156 9.105469 L 9.523438 9.105469 Z M 13.660156 12.390625 L 12.703125 12.710938 C 12.484375 12.785156 12.367188 13.019531 12.441406 13.234375 C 12.5 13.410156 12.660156 13.519531 12.832031 13.519531 C 12.875 13.519531 12.921875 13.511719 12.964844 13.496094 L 13.660156 13.265625 L 13.660156 14.875 L 12.703125 15.195312 C 12.484375 15.265625 12.367188 15.5 12.441406 15.71875 C 12.5 15.890625 12.660156 16 12.832031 16 C 12.875 16 12.921875 15.992188 12.964844 15.980469 L 13.660156 15.746094 L 13.660156 17.359375 L 12.703125 17.675781 C 12.484375 17.75 12.367188 17.984375 12.441406 18.199219 C 12.5 18.375 12.660156 18.484375 12.832031 18.484375 C 12.875 18.484375 12.921875 18.476562 12.964844 18.460938 L 13.660156 18.230469 L 13.660156 19.863281 L 12.832031 19.863281 L 12.832031 21.792969 L 11.800781 23.171875 L 11.386719 23.171875 L 10.351562 21.792969 L 10.351562 19.863281 L 9.523438 19.863281 L 9.523438 19.488281 L 11.304688 18.921875 C 11.523438 18.855469 11.640625 18.621094 11.574219 18.402344 C 11.503906 18.1875 11.269531 18.066406 11.054688 18.136719 L 9.523438 18.621094 L 9.523438 17.007812 L 11.304688 16.441406 C 11.523438 16.371094 11.640625 16.140625 11.574219 15.921875 C 11.503906 15.703125 11.269531 15.582031 11.054688 15.652344 L 9.523438 16.136719 L 9.523438 14.523438 L 11.304688 13.960938 C 11.523438 13.890625 11.640625 13.65625 11.574219 13.441406 C 11.503906 13.222656 11.269531 13.101562 11.054688 13.171875 L 9.523438 13.65625 L 9.523438 12.042969 L 11.304688 11.476562 C 11.523438 11.40625 11.640625 11.175781 11.574219 10.957031 C 11.503906 10.738281 11.269531 10.617188 11.054688 10.6875 L 9.523438 11.175781 L 9.523438 9.933594 L 13.59375 9.933594 L 12.703125 10.230469 C 12.484375 10.300781 12.367188 10.535156 12.441406 10.753906 C 12.5 10.925781 12.660156 11.035156 12.832031 11.035156 C 12.875 11.035156 12.921875 11.027344 12.964844 11.015625 L 13.660156 10.78125 Z M 13.660156 12.390625"/>
    <path d="M 22.386719 4.515625 C 22.042969 3.203125 21.039062 1.953125 19.5625 0.992188 C 17.738281 -0.195312 15.15625 -0.324219 12.832031 0.648438 L 12.746094 0.683594 C 12.707031 0.699219 12.671875 0.71875 12.628906 0.730469 C 12.433594 0.800781 12.285156 0.859375 12.164062 0.90625 C 11.777344 1.058594 11.777344 1.058594 11.136719 0.867188 C 9.320312 0.324219 7.003906 -0.214844 5.230469 0.421875 C 2.828125 1.28125 0.699219 4.128906 1.355469 8.550781 C 1.433594 9.070312 1.507812 9.59375 1.585938 10.121094 C 1.765625 11.375 1.953125 12.667969 2.171875 13.949219 C 2.273438 14.542969 2.625 15.074219 3.136719 15.398438 C 3.472656 15.613281 3.863281 15.722656 4.253906 15.722656 C 4.4375 15.722656 4.621094 15.699219 4.796875 15.648438 C 5.480469 15.460938 6.234375 15.3125 7.097656 15.191406 C 7.324219 15.160156 7.480469 14.953125 7.449219 14.726562 C 7.417969 14.5 7.210938 14.339844 6.984375 14.371094 C 6.082031 14.496094 5.296875 14.652344 4.578125 14.851562 C 4.238281 14.945312 3.882812 14.890625 3.578125 14.699219 C 3.265625 14.5 3.050781 14.175781 2.988281 13.808594 C 2.769531 12.539062 2.582031 11.25 2.40625 10.003906 C 2.328125 9.476562 2.253906 8.949219 2.175781 8.425781 C 1.585938 4.46875 3.425781 1.945312 5.507812 1.199219 C 7.074219 0.636719 9.335938 1.195312 10.902344 1.660156 C 11.734375 1.910156 11.867188 1.910156 12.464844 1.675781 C 12.582031 1.632812 12.722656 1.574219 12.902344 1.511719 C 12.964844 1.492188 13.023438 1.464844 13.082031 1.441406 L 13.148438 1.410156 C 15.226562 0.542969 17.511719 0.644531 19.109375 1.6875 C 20.417969 2.535156 21.296875 3.613281 21.585938 4.722656 C 22.316406 7.515625 21.785156 10.714844 21.097656 13.75 C 21.023438 14.09375 20.816406 14.378906 20.523438 14.5625 C 20.222656 14.746094 19.863281 14.800781 19.515625 14.714844 C 18.539062 14.46875 17.445312 14.300781 16.175781 14.199219 C 15.945312 14.175781 15.75 14.347656 15.730469 14.578125 C 15.714844 14.804688 15.882812 15.003906 16.109375 15.023438 C 17.332031 15.121094 18.382812 15.28125 19.316406 15.515625 C 19.878906 15.660156 20.464844 15.570312 20.957031 15.265625 C 21.441406 14.96875 21.78125 14.492188 21.90625 13.929688 C 22.613281 10.792969 23.164062 7.480469 22.386719 4.515625 Z M 22.386719 4.515625"/>
</svg>

<svg xmlns="http://www.w3.org/2000/svg" width="32" height="32" viewBox="0 0 24 24">
    <path d="M15.031 10.324a.41.41 0 0 0 .262-.523.415.415 0 0 0-.523-.262l-.282.094V7.277l-1.484-1.484H10.18L8.695 7.277v4.157l-.539.171a.414.414 0 1 0 .25.79l.29-.09v1.613l-.54.172a.414.414 0 1 0 .25.79l.29-.095v1.617l-.54.168a.42.42 0 0 0-.27.524.41.41 0 0 0 .395.285.336.336 0 0 0 .125-.02l.29-.09v1.614l-.54.172a.414.414 0 1 0 .25.79l.29-.091v.937h.827v1.38L10.973 24h1.238l1.45-1.93v-1.379h.827v-2.738l.543-.18a.412.412 0 0 0 .262-.523.41.41 0 0 0-.523-.262l-.282.094v-1.61l.543-.183a.41.41 0 0 0 .262-.523.415.415 0 0 0-.523-.262l-.282.098v-1.614l.543-.18a.412.412 0 0 0 .262-.523.41.41 0 0 0-.523-.262l-.282.094v-1.61zM9.523 7.621l1-1h2.141l.996 1v1.484H9.523zm4.137 4.77l-.957.32a.412.412 0 0 0-.262.523.413.413 0 0 0 .524.262l.695-.23v1.609l-.957.32a.41.41 0 0 0-.262.524.414.414 0 0 0 .524.261l.695-.234v1.613l-.957.317a.412.412 0 0 0-.262.523.413.413 0 0 0 .524.262l.695-.23v1.632h-.828v1.93l-1.031 1.379h-.414l-1.035-1.379v-1.93h-.829v-.375l1.782-.566a.414.414 0 0 0 .27-.52.415.415 0 0 0-.52-.265l-1.532.484v-1.613l1.782-.567a.414.414 0 1 0-.25-.79l-1.532.486v-1.614l1.782-.562a.414.414 0 0 0-.25-.79l-1.532.485v-1.613l1.782-.566a.414.414 0 1 0-.25-.79l-1.532.489V9.934h4.07l-.89.296a.41.41 0 0 0-.262.524.414.414 0 0 0 .524.262l.695-.235zm0 0"/>
    <path d="M22.387 4.516c-.344-1.313-1.348-2.563-2.825-3.524-1.824-1.187-4.406-1.316-6.73-.344l-.086.036c-.039.015-.074.035-.117.046-.195.07-.344.13-.465.176-.387.153-.387.153-1.027-.039C9.32.324 7.004-.215 5.23.422 2.828 1.282.7 4.129 1.355 8.55c.079.52.153 1.043.23 1.57.18 1.254.368 2.547.587 3.828a2.15 2.15 0 0 0 .965 1.45 2.077 2.077 0 0 0 1.66.25 18.284 18.284 0 0 1 2.3-.458.414.414 0 1 0-.113-.82c-.902.125-1.687.281-2.406.48-.34.094-.695.04-1-.152a1.32 1.32 0 0 1-.59-.89c-.218-1.27-.406-2.559-.582-3.805-.078-.527-.152-1.055-.23-1.578-.59-3.957 1.25-6.48 3.332-7.227 1.566-.562 3.828-.004 5.394.461.832.25.965.25 1.563.016.117-.043.258-.102.437-.164.063-.02.121-.047.18-.07l.066-.032c2.079-.867 4.364-.765 5.961.278 1.309.847 2.188 1.925 2.477 3.035.73 2.793.2 5.992-.488 9.027a1.268 1.268 0 0 1-.575.813c-.3.183-.66.238-1.007.152-.977-.246-2.07-.414-3.34-.516a.407.407 0 0 0-.446.38.417.417 0 0 0 .38.444c1.222.098 2.273.258 3.206.493a2.104 2.104 0 0 0 1.641-.25c.484-.297.824-.774.95-1.336.706-3.137 1.257-6.45.48-9.414zm0 0"/>
</svg>
